app/images/icons/heart-icon.svg

<svg xmlns="http://www.w3.org/2000/svg" preserveAspectRatio="xMidYMid" width="22" height="18"><path d="M21.99 5.82a6.212 6.212 0 00-1.849-4.1C19.016.61 17.545-.001 16.002-.001c-2.311 0-3.948 1.785-4.827 2.745l-.156.169-.083-.094c-.804-.916-2.476-2.82-4.938-2.82-1.543 0-3.013.611-4.139 1.721A6.212 6.212 0 00.01 5.82c-.082 1.541.31 2.88 1.271 4.338.861 1.308 3.104 3.374 4.763 4.748 1.705 1.411 3.95 3.093 4.965 3.093 1.032 0 3.269-1.68 4.965-3.087 1.646-1.367 3.876-3.432 4.746-4.754.646-.984 1.375-2.366 1.27-4.338zm-2.376 3.61c-.632.961-2.412 2.736-4.431 4.418-2.406 2.004-3.831 2.795-4.172 2.826-.342-.035-1.77-.833-4.188-2.843-2.03-1.686-3.813-3.454-4.437-4.402-.795-1.206-1.12-2.297-1.054-3.538.135-2.519 2.228-4.569 4.666-4.569 1.863 0 3.216 1.542 3.943 2.37.428.488.663.755 1.059.755.409 0 .672-.286 1.151-.809.794-.866 2.122-2.316 3.851-2.316 2.438 0 4.531 2.05 4.666 4.569.067 1.254-.248 2.313-1.054 3.539z" fill="#a3bbc8" fill-rule="evenodd"/></svg>

<svg xmlns="http://www.w3.org/2000/svg" xmlns:xlink="http://www.w3.org/1999/xlink" preserveAspectRatio="xMidYMid" width="22" height="18" viewBox="0 0 22 18">
  <defs>
    <style>
      .cls-1 {
        fill: #a3bbc8;
        fill-rule: evenodd;
      }
    </style>
  </defs>
  <path d="M21.990,5.820 C21.907,4.269 21.250,2.813 20.141,1.720 C19.016,0.610 17.545,-0.001 16.002,-0.001 C13.691,-0.001 12.054,1.784 11.175,2.744 C11.125,2.798 11.071,2.857 11.019,2.913 C10.991,2.882 10.963,2.849 10.936,2.819 C10.132,1.903 8.460,-0.001 5.998,-0.001 C4.455,-0.001 2.985,0.610 1.859,1.720 C0.750,2.813 0.093,4.269 0.010,5.820 C-0.072,7.361 0.320,8.700 1.281,10.158 C2.142,11.466 4.385,13.532 6.044,14.906 C7.749,16.317 9.994,17.999 11.009,17.999 C12.041,17.999 14.278,16.319 15.974,14.912 C17.620,13.545 19.850,11.480 20.720,10.158 C21.366,9.174 22.095,7.792 21.990,5.820 ZM19.614,9.430 C18.982,10.391 17.202,12.166 15.183,13.848 C12.777,15.852 11.352,16.643 11.011,16.674 C10.669,16.639 9.241,15.841 6.823,13.831 C4.793,12.145 3.010,10.377 2.386,9.429 C1.591,8.223 1.266,7.132 1.332,5.891 C1.467,3.372 3.560,1.322 5.998,1.322 C7.861,1.322 9.214,2.864 9.941,3.692 C10.369,4.180 10.604,4.447 11.000,4.447 C11.409,4.447 11.672,4.161 12.151,3.638 C12.945,2.772 14.273,1.322 16.002,1.322 C18.440,1.322 20.533,3.372 20.668,5.891 C20.735,7.145 20.420,8.204 19.614,9.430 Z" class="cls-1"/>
</svg>
